packages/icons/svg/Navigation_Display_DisplayProductX9_48px.svg

<svg xmlns="http://www.w3.org/2000/svg" viewBox="0 0 48 48"><path d="M14 32H6a2 2 0 00-2 2v8a2 2 0 002 2h8a2 2 0 002-2v-8a2 2 0 00-2-2zm-1 9H7v-6h6zM28 32h-8a2 2 0 00-2 2v8a2 2 0 002 2h8a2 2 0 002-2v-8a2 2 0 00-2-2zm-1 9h-6v-6h6zM42 32h-8a2 2 0 00-2 2v8a2 2 0 002 2h8a2 2 0 002-2v-8a2 2 0 00-2-2zm-1 9h-6v-6h6zM14 18H6a2 2 0 00-2 2v8a2 2 0 002 2h8a2 2 0 002-2v-8a2 2 0 00-2-2zm-1 9H7v-6h6zM28 18h-8a2 2 0 00-2 2v8a2 2 0 002 2h8a2 2 0 002-2v-8a2 2 0 00-2-2zm-1 9h-6v-6h6zM42 18h-8a2 2 0 00-2 2v8a2 2 0 002 2h8a2 2 0 002-2v-8a2 2 0 00-2-2zm-1 9h-6v-6h6zM14 4H6a2 2 0 00-2 2v8a2 2 0 002 2h8a2 2 0 002-2V6a2 2 0 00-2-2zm-1 9H7V7h6zM28 4h-8a2 2 0 00-2 2v8a2 2 0 002 2h8a2 2 0 002-2V6a2 2 0 00-2-2zm-1 9h-6V7h6zM42 4h-8a2 2 0 00-2 2v8a2 2 0 002 2h8a2 2 0 002-2V6a2 2 0 00-2-2zm-1 9h-6V7h6z"/></svg>

<svg xmlns="http://www.w3.org/2000/svg" viewBox="0 0 48 48"><defs></defs><g id="Icon"><path  d="M14,32H6a2,2,0,0,0-2,2v8a2,2,0,0,0,2,2h8a2,2,0,0,0,2-2V34A2,2,0,0,0,14,32Zm-1,9H7V35h6Z"/><path  d="M28,32H20a2,2,0,0,0-2,2v8a2,2,0,0,0,2,2h8a2,2,0,0,0,2-2V34A2,2,0,0,0,28,32Zm-1,9H21V35h6Z"/><path  d="M42,32H34a2,2,0,0,0-2,2v8a2,2,0,0,0,2,2h8a2,2,0,0,0,2-2V34A2,2,0,0,0,42,32Zm-1,9H35V35h6Z"/><path  d="M14,18H6a2,2,0,0,0-2,2v8a2,2,0,0,0,2,2h8a2,2,0,0,0,2-2V20A2,2,0,0,0,14,18Zm-1,9H7V21h6Z"/><path  d="M28,18H20a2,2,0,0,0-2,2v8a2,2,0,0,0,2,2h8a2,2,0,0,0,2-2V20A2,2,0,0,0,28,18Zm-1,9H21V21h6Z"/><path  d="M42,18H34a2,2,0,0,0-2,2v8a2,2,0,0,0,2,2h8a2,2,0,0,0,2-2V20A2,2,0,0,0,42,18Zm-1,9H35V21h6Z"/><path  d="M14,4H6A2,2,0,0,0,4,6v8a2,2,0,0,0,2,2h8a2,2,0,0,0,2-2V6A2,2,0,0,0,14,4Zm-1,9H7V7h6Z"/><path  d="M28,4H20a2,2,0,0,0-2,2v8a2,2,0,0,0,2,2h8a2,2,0,0,0,2-2V6A2,2,0,0,0,28,4Zm-1,9H21V7h6Z"/><path  d="M42,4H34a2,2,0,0,0-2,2v8a2,2,0,0,0,2,2h8a2,2,0,0,0,2-2V6A2,2,0,0,0,42,4Zm-1,9H35V7h6Z"/></g></svg>
